X:2
T:Cheek To Cheek
C:Irving Berlin
L:1/4
M:C
I:linebreak $
K:Bb
"Bb" G"Gm" F3 |"Cm" z2"F7" D E |"Bb" G"Gm" F3 |"Cm" z2"F7" D E |$"Bb" G F"Cm" A G |
"C#o" B A"Dm" c B |"Aø" d2"D7" z2 |"G7" z2"C7" c B |$"F7" A c"Eb" B G |"Dm" F A"Cm" G E |
"Aø" D4 |"D7" z2 E F |$"Cm" G G E E |"F7" C C B, A, |"Bb" B,2"Bb6" z2 ||1"Cm" z2"F7" z2 :|2$
"Dm" z2"Db7" z F/=E/ |:"Cm" E F"F7" A c |"Bb" B B"Gm" z F/=E/ |"Cm" E F"F7" A c |$
"Bb" B2"Gm" z F/=E/ |"Cm" E F"F7" A c |"Bb" B B"Gm" F ^F |"Cm" G G"F7" E A, |"Bb" B,2"Bb6" F =E :|

